images/usecases/health-care/prison-1.svg

<svg width="261" height="322" fill="none" xmlns="http://www.w3.org/2000/svg"><path d="M64.25 214c0-51.501 41.749-93.25 93.25-93.25s93.25 41.749 93.25 93.25-41.749 93.25-93.25 93.25S64.25 265.501 64.25 214Z" stroke="#91A3BE" stroke-width="1.5"/><path d="M139.881 190.095a2.285 2.285 0 1 1-4.57.001 2.285 2.285 0 0 1 4.57-.001Z" fill="#305680"/><path d="M120.453 178.571h-5.715a.762.762 0 0 0-.761.762v10c0 .421.341.762.761.762h14.096m-8.381-11.524v-9.238m0 9.238h14.857m0 0v-9.238m0 9.238h14.857m0 0v-9.238m0 9.238h14.857m0 0v-9.238m0 9.238h14.857m0 0v-9.238m0 9.238h14.857m0 0h5.715c.421 0 .762.341.762.762v10a.762.762 0 0 1-.762.762h-54.286m48.571-11.524v-9.238" stroke="#305680" stroke-width="4.571" stroke-linecap="round"/><path d="M120.452 190.286v67.238c0 .631.512 1.143 1.143 1.143h72c.631 0 1.143-.512 1.143-1.143v-67.238" stroke="#305680" stroke-width="4.571"/><path d="m111.5 223.048 92-.095m-92 11.619h92m-92 11.714h92M174.88 231.619l7.023 6.572M174.88 243.429l7.023 6.571M154.143 231.619l7.023 6.572M154.143 243.429l7.023 6.571M174.88 219.429l7.023 6.571M154.143 219.429l7.023 6.571M133.404 219.429l7.023 6.571M133.404 231.619l7.023 6.572M133.404 243.429l7.023 6.571" stroke="#305680" stroke-width="4.571" stroke-linecap="round"/><path d="M0 212h43M150.75 24v80" stroke="#91A3BE" stroke-width="1.5"/><path d="M42 212.741a109.495 109.495 0 0 1 67.374-101.313A109.506 109.506 0 0 1 151.259 103l.003 1.586a107.929 107.929 0 0 0-76.236 31.776 107.9 107.9 0 0 0-31.44 76.376l-1.586.003Z" fill="#91A3BE"/><circle cx="151" cy="12" r="11.25" fill="#F4F8FE" stroke="#91A3BE" stroke-width="1.5"/></svg>

<svg width="261" height="322" viewBox="0 0 261 322" fill="none" xmlns="http://www.w3.org/2000/svg">
<path d="M64.25 214C64.25 162.499 105.999 120.75 157.5 120.75C209.001 120.75 250.75 162.499 250.75 214C250.75 265.501 209.001 307.25 157.5 307.25C105.999 307.25 64.25 265.501 64.25 214Z" stroke="#91A3BE" stroke-width="1.5"/>
<path d="M139.881 190.095C139.881 191.358 138.858 192.381 137.595 192.381C136.333 192.381 135.31 191.358 135.31 190.095C135.31 188.833 136.333 187.81 137.595 187.81C138.858 187.81 139.881 188.833 139.881 190.095Z" fill="#305680"/>
<path d="M120.453 178.571H114.738C114.318 178.571 113.977 178.912 113.977 179.333V189.333C113.977 189.754 114.318 190.095 114.738 190.095H128.834M120.453 178.571V169.333M120.453 178.571H128.834H135.31M135.31 178.571V169.333M135.31 178.571H146.167H150.167M150.167 178.571V169.333M150.167 178.571H163.215H165.024M165.024 178.571V169.333M165.024 178.571H179.881M179.881 178.571V169.333M179.881 178.571H194.738M194.738 178.571H200.453C200.874 178.571 201.215 178.912 201.215 179.333V189.333C201.215 189.754 200.874 190.095 200.453 190.095H146.167M194.738 178.571V169.333" stroke="#305680" stroke-width="4.57143" stroke-linecap="round"/>
<path d="M120.452 190.286V257.524C120.452 258.155 120.964 258.667 121.595 258.667H193.595C194.226 258.667 194.738 258.155 194.738 257.524V190.286" stroke="#305680" stroke-width="4.57143"/>
<path d="M111.5 223.048L203.5 222.953M111.5 234.572H203.5M111.5 246.286H203.5" stroke="#305680" stroke-width="4.57143" stroke-linecap="round"/>
<path d="M174.88 231.619L181.903 238.191" stroke="#305680" stroke-width="4.57143" stroke-linecap="round"/>
<path d="M174.88 243.429L181.903 250" stroke="#305680" stroke-width="4.57143" stroke-linecap="round"/>
<path d="M154.143 231.619L161.166 238.191" stroke="#305680" stroke-width="4.57143" stroke-linecap="round"/>
<path d="M154.143 243.429L161.166 250" stroke="#305680" stroke-width="4.57143" stroke-linecap="round"/>
<path d="M174.88 219.429L181.903 226" stroke="#305680" stroke-width="4.57143" stroke-linecap="round"/>
<path d="M154.143 219.429L161.166 226" stroke="#305680" stroke-width="4.57143" stroke-linecap="round"/>
<path d="M133.404 219.429L140.427 226" stroke="#305680" stroke-width="4.57143" stroke-linecap="round"/>
<path d="M133.404 231.619L140.427 238.191" stroke="#305680" stroke-width="4.57143" stroke-linecap="round"/>
<path d="M133.404 243.429L140.427 250" stroke="#305680" stroke-width="4.57143" stroke-linecap="round"/>
<path d="M0 212H43" stroke="#91A3BE" stroke-width="1.5"/>
<line x1="150.75" y1="24" x2="150.75" y2="104" stroke="#91A3BE" stroke-width="1.5"/>
<path d="M42.0003 212.741C41.9686 198.361 44.7695 184.116 50.2432 170.819C55.7168 157.522 63.7559 145.433 73.9015 135.242C84.0471 125.052 96.1005 116.96 109.374 111.428C122.647 105.896 136.879 103.032 151.259 103L151.262 104.586C137.091 104.618 123.065 107.44 109.984 112.892C96.903 118.344 85.0242 126.319 75.0256 136.362C65.027 146.404 57.1043 158.318 51.71 171.423C46.3157 184.527 43.5553 198.566 43.5865 212.738L42.0003 212.741Z" fill="#91A3BE"/>
<circle cx="151" cy="12" r="11.25" fill="#F4F8FE" stroke="#91A3BE" stroke-width="1.5"/>
</svg>
